images/icons/PBS-pinterest_circle.svg

<?xml version="1.0" encoding="UTF-8" standalone="no"?>
<svg width="256px" height="256px" viewBox="0 0 256 256" version="1.1" xmlns="http://www.w3.org/2000/svg" xmlns:xlink="http://www.w3.org/1999/xlink">
    <!-- Generator: Sketch 39.1 (31720) - http://www.bohemiancoding.com/sketch -->
    <title>PBS-pinterest_circle</title>
    <desc>Created with Sketch.</desc>
    <defs></defs>
    <g id="Page-1" stroke="none" stroke-width="1" fill="none" fill-rule="evenodd">
        <g id="PBS-pinterest_circle">
            <g id="pinterest_fill" transform="translate(50.912286, 51.912286)">
                <g transform="translate(-0.000000, -0.000000)" id="Icons">
                    <g>
                        <g id="pinterest_fill">
                            <circle id="Oval-5" stroke="#222222" stroke-width="20" fill="#222222" cx="76.0877144" cy="76.0877144" r="76"></circle>
                            <path d="M48.4620059,129.327575 C49.9118359,123.077434 57.8492213,89.521941 57.8492213,89.521941 C57.8492213,89.521941 55.4510664,84.7242978 55.4510664,77.6378704 C55.4510664,66.4900522 61.9052772,58.1858744 69.9453644,58.1858744 C76.7770375,58.1858744 80.0728331,63.3129638 80.0728331,69.4684056 C80.0728331,76.3294223 75.699335,86.610277 73.442562,96.1335389 C71.5579166,104.098934 77.4425989,110.595826 85.2986232,110.595826 C99.5381672,110.595826 110.481915,95.5893525 110.481915,73.9245988 C110.481915,54.7513649 96.7065305,41.3414383 77.0264563,41.3414383 C54.2386512,41.3414383 40.8674048,58.4366273 40.8674048,76.1000104 C40.8674048,82.9837017 43.5189796,90.3635627 46.8254452,94.3729358 C47.4803363,95.1718762 47.5750355,95.8587783 47.3789682,96.6710564 C46.7734277,99.1972552 45.4209643,104.639119 45.1555399,105.754168 C44.8060871,107.222671 43.9978101,107.528108 42.4746218,106.826535 C32.4778644,102.170273 26.2210545,87.5425964 26.2210545,75.798574 C26.2210545,50.5432568 44.5793426,27.3406429 79.1378463,27.3406429 C106.91536,27.3406429 128.504088,47.1340891 128.504088,73.59782 C128.504088,101.185936 111.104795,123.40688 86.9591919,123.40688 C78.8310744,123.40688 71.2097975,119.185435 68.5982361,114.209063 C68.5982361,114.209063 64.5808601,129.500968 63.6045257,133.243583 C61.798574,140.204634 55.8085222,150.934976 53.6531172,154.241442 C51.4963786,157.547908 51.2849468,157.873067 51.2849468,157.873067 C50.2606745,159.44446 49.1784799,159.203821 48.8848873,157.321905 C48.8848873,157.321905 48.8274645,157.290486 48.1792423,152.300777 C47.5296864,147.317737 46.8481199,136.244611 48.4620059,129.327575 L48.4620059,129.327575 Z" id="pinterest_fill_icon" fill="#FFFFFF"></path>
                        </g>
                    </g>
                </g>
            </g>
        </g>
    </g>
</svg>

<svg width="256" height="256" viewBox="0 0 256 256" xmlns="http://www.w3.org/2000/svg"><title>PBS-pinterest_circle</title><g transform="translate(50.912 51.912)" fill="none" fill-rule="evenodd"><circle stroke="#222" stroke-width="20" fill="#222" cx="76.088" cy="76.088" r="76"/><path d="M48.462 129.328c1.45-6.25 9.387-39.806 9.387-39.806s-2.398-4.798-2.398-11.884c0-11.148 6.454-19.452 14.494-19.452 6.832 0 10.128 5.127 10.128 11.282 0 6.861-4.374 17.142-6.63 26.666-1.885 7.965 4 14.462 11.856 14.462 14.24 0 25.183-15.007 25.183-36.671 0-19.174-13.775-32.584-33.456-32.584-22.787 0-36.159 17.096-36.159 34.759 0 6.884 2.652 14.264 5.958 18.273.655.799.75 1.486.554 2.298-.606 2.526-1.958 7.968-2.223 9.083-.35 1.469-1.158 1.774-2.681 1.073-9.997-4.657-16.254-19.284-16.254-31.028 0-25.256 18.358-48.458 52.917-48.458 27.777 0 49.366 19.793 49.366 46.257 0 27.588-17.4 49.809-41.545 49.809-8.128 0-15.75-4.222-18.36-9.198 0 0-4.018 15.292-4.994 19.035-1.806 6.96-7.796 17.691-9.952 20.997a6616.578 6616.578 0 0 0-2.368 3.632c-1.024 1.571-2.107 1.33-2.4-.551 0 0-.058-.032-.706-5.021-.65-4.983-1.33-16.056.283-22.973z" fill="#FFF"/></g></svg>
